src/render/svg/vstudio.svg

<svg class="icon" viewBox="0 0 1024 1024" version="1.1" xmlns="http://www.w3.org/2000/svg"
     width="512" height="512">
  <path
    d="M718.933333 85.333333L387.84 416.853333l-209.066667-164.693333L87.466667 298.666667v426.666666l91.733333 46.506667 210.346667-164.266667L719.786667 938.666667 938.666667 850.346667V170.666667zM186.453333 610.133333V411.733333l104.106667 103.68z m526.08 55.04L514.133333 512l198.4-153.173333z"
    ></path>
</svg>

<svg xmlns="http://www.w3.org/2000/svg" width="512" height="512" class="icon" viewBox="0 0 1024 1024">
    <path d="M718.93333 85.33333 387.84 416.85333 178.77333 252.16l-91.30666 46.50667v426.66666L179.2 771.84l210.34667-164.26667 330.24 331.09334 218.88-88.32v-679.68zm-532.48 524.8v-198.4l104.10667 103.68zm526.08 55.04L514.13333 512l198.4-153.17333z"/>
</svg>
